X: 11225
T: Dusky Meadow
R: strathspey
M: 4/4
K: Amixolydian
B,|"A"A,>AE<C "G"D<G,D>B,|"A"A,>AE<C "D"F<D"A"E>C|"G"D>E"A"C>E "D"D/C/B,/A,/ "G"G,>B,|"A"A,>AE<D "A"C<A, (3A,B,B,|
"A"A,>AE<C "G"D<G,D>B,|"A"A,>AE<C "D"F<D"A"E>C|"G"D>E"A"C>E "D"D/C/B,/A,/ "G"G,>d|"A"c>e "Bm"B/c/d/B/ "A"c<A A||
|:^g|"A"(3aae c>A "G"B<GG>^g|"A"(3aae c>A e<Ac>A|"G"d>B"A"c>A "D"d/c/B/A/ "G"G>g|"D"f/g/a/f/ "A"(3eaa "A"c<A A:|

